X:3150
T:Melevetten
T:(SvL Skåne nr 168) 
C:efter Carl Gabriel Malmberg
Z:och arr: Åke Persson
M:3/4
L:1/8
O:Skåne
Q:120 
K:D
R:Menuett
V:1
D2 |: D2 DE (3FED | A2 AB (3cBA | d2 (3efg (3fec | dc c3 d | B2 Bg fg |
 A2 Af ef | G2 GE FG | Ad FA D2 | E/2F/2G/2E/2 DF A2 | A,C E2 D2 ::
f2 fe fg | fe e3 c | d2 dc de | dc c3 d | B2 Bg fg |
 A2 Af ef | G2 GE FG | Ad FA D2 | E/2F/2G/2E/2 DF A2 | A,C E2 D2 :|
V:2
z2 |: A,2 A,D CE | D2 DF EB | F2 FA (3dcB | F2 E3 z | G2 GB AB |
 F2 FA GA | E2 EC DE | FA DF A,2 | C/2D/2E F2 D2 | CE C2 A,2 ::
F2 dc de | dc c3 A | B2 BA Bc | BA A3 F |G2 GB AB |
 F2 FA GA | E2 EC DE | FA DF A,2 | C/2D/2E F2 D2 | CE C2 A,2 :|
(:musicend:)
(:music:)
